svg/food/fries_fill.svg

<svg xmlns="http://www.w3.org/2000/svg" width="24" height="24" viewBox="0 0 24 24"><g fill="none" fill-rule="evenodd"><path d="M24,0 L24,24 L0,24 L0,0 L24,0 Z M12.5935,23.2578 L12.5819,23.2595 L12.5109,23.295 L12.4919,23.2987 L12.4767,23.295 L12.4057,23.2595 C12.3958,23.2564 12.387,23.259 12.3821,23.2649 L12.378,23.2758 L12.3609,23.7031 L12.3659,23.7235 L12.3769,23.7357 L12.4805,23.8097 L12.4953,23.8136 L12.5071,23.8097 L12.6107,23.7357 L12.6233,23.7197 L12.6267,23.7031 L12.6096,23.2758 C12.6076,23.2657 12.601,23.2593 12.5935,23.2578 Z M12.8584,23.1453 L12.8445,23.1473 L12.6598,23.2397 L12.6499,23.2499 L12.6472,23.2611 L12.6651,23.6906 L12.6699,23.7034 L12.6784,23.7105 L12.8793,23.8032 C12.8914,23.8069 12.9022,23.803 12.9078,23.7952 L12.9118,23.7812 L12.8777,23.1665 C12.8753,23.1546 12.8674,23.147 12.8584,23.1453 Z M12.143,23.1473 C12.1332,23.1424 12.1222,23.1453 12.1156,23.1526 L12.1099,23.1665 L12.0758,23.7812 C12.0751,23.7927 12.0828,23.8019 12.0926,23.8046 L12.1083,23.8032 L12.3092,23.7105 L12.3186,23.7024 L12.3225,23.6906 L12.3404,23.2611 L12.3372,23.2485 L12.3278,23.2397 L12.143,23.1473 Z"/><path fill="#09244B" d="M13.9999,2 C15.0542909,2 15.9180678,2.81587733 15.9944144,3.85073759 L15.9999,4 L16.9999,4 C18.0542909,4 18.9180678,4.81587733 18.9944144,5.85073759 L18.9999,6 L18.9999,9.00269 C20.0830652,9.05844565 20.923407,9.97188773 20.8944025,11.0509006 L20.885,11.199 L20.1751,18.2985 C20.0276,19.7731154 18.8287871,20.9096206 17.3666678,20.9948627 L17.19,21 L6.80992,21 C5.32793923,21 4.07780942,19.9202108 3.84750139,18.4737853 L3.82481,18.2985 L3.11486,11.199 C3.00559652,10.1063652 3.79402038,9.14784144 4.85381003,9.01554428 L4.99995,9.00269 L4.99995,5 C4.99995,3.94563773 5.81582733,3.08183483 6.85068759,3.00548573 L6.99995,3 L7.99995,3 C9.05431227,3 9.91811517,3.81587733 9.99446427,4.85073759 L9.99995,5 L10.9999,5 L10.9999,4 C10.9999,2.94563773 11.8158411,2.08183483 12.8506463,2.00548573 L12.9999,2 L13.9999,2 Z M10.9999,7 L9.99995,7 L9.99995,11.4651 C10.3095,11.6441 10.6453,11.7828 10.9999,11.8741 L10.9999,7 Z M13.9999,4 L12.9999,4 L12.9999,11.8741 C13.3546,11.7828 13.6904,11.6441 13.9999,11.4651 L13.9999,4 Z M7.99995,5 L6.99995,5 L6.99995,9.01407 C7.38205,9.05955 7.72038,9.21214 7.99995,9.42504 L7.99995,5 Z M16.9999,6 L15.9999,6 L15.9999,9.42501 C16.2329,9.24759333 16.5066639,9.11206556 16.812569,9.04550421 L16.9999,9.01406 L16.9999,6 Z"/></g></svg>

<svg xmlns="http://www.w3.org/2000/svg" width="24" height="24"><g fill="none" fill-rule="evenodd"><path d="M24 0v24H0V0zM12.594 23.258l-.012.002-.071.035-.02.004-.014-.004-.071-.036c-.01-.003-.019 0-.024.006l-.004.01-.017.428.005.02.01.013.104.074.015.004.012-.004.104-.074.012-.016.004-.017-.017-.427c-.002-.01-.009-.017-.016-.018m.264-.113-.014.002-.184.093-.01.01-.003.011.018.43.005.012.008.008.201.092c.012.004.023 0 .029-.008l.004-.014-.034-.614c-.003-.012-.01-.02-.02-.022m-.715.002a.023.023 0 0 0-.027.006l-.006.014-.034.614c0 .012.007.02.017.024l.015-.002.201-.093.01-.008.003-.011.018-.43-.003-.012-.01-.01z"/><path fill="#09244B" d="M14 2a2 2 0 0 1 1.994 1.85L16 4h1a2 2 0 0 1 1.994 1.85L19 6v3.003a2 2 0 0 1 1.894 2.048l-.009.148-.71 7.1a3 3 0 0 1-2.808 2.696L17.19 21H6.81a3 3 0 0 1-2.962-2.526l-.023-.175-.71-7.1a2 2 0 0 1 1.739-2.183L5 9.003V5a2 2 0 0 1 1.85-1.995L7 3h1a2 2 0 0 1 1.994 1.85L10 5h1V4a2 2 0 0 1 1.85-1.995L13 2zm-3 5h-1v4.465c.31.18.645.318 1 .41zm3-3h-1v7.874c.355-.091.69-.23 1-.409zM8 5H7v4.014c.382.046.72.198 1 .411zm9 1h-1v3.425c.233-.177.507-.313.813-.38l.187-.03z"/></g></svg>
